gama.ui.shared/icons_svg/light/generic/menu.saveall.svg

<svg height="25" viewBox="-311.935 -3778.582 25 25" width="25" xmlns="http://www.w3.org/2000/svg"><g fill="none"><path d="m-307.59502-3778.0825h16.31999c2.12078 0 3.84001 1.7193 3.84001 3.84v16.32c0 2.1208-1.71923 3.84-3.84001 3.84h-16.31999c-2.12078 0-3.84-1.7192-3.84-3.84v-16.32c0-2.1207 1.71922-3.84 3.84-3.84z" fill="#fff"/><path d="m-307.59502-3778.0825h16.31999c2.12078 0 3.84001 1.7193 3.84001 3.84v16.32c0 2.1208-1.71923 3.84-3.84001 3.84h-16.31999c-2.12078 0-3.84-1.7192-3.84-3.84v-16.32c0-2.1207 1.71922-3.84 3.84-3.84z" stroke="#000" stroke-linecap="round" stroke-linejoin="round" stroke-width=".25"/><g fill="#538737"><path d="m-306.4192-3763.918c.2209 0 .39998.179.39998.4v2.4006c0 .6627.53722 1.2 1.19994 1.2h8.79955c.66271 0 1.19993-.5373 1.19993-1.2v-9.9996h-2.79985c-.2209 0-.39998-.179-.39998-.4v-2.7997h-6.79965c-.66272 0-1.19994.5372-1.19994 1.1999v1.5991c0 .2209-.17908.4-.39998.4s-.39998-.1791-.39998-.4v-1.5991c0-1.1045.89538-1.9999 1.9999-1.9999h7.17725c.10619-.0067.21673.0287.30521.1172l3.19982 3.1998c.0885.0887.1239.199.11717.3052v10.3771c0 1.1044-.89539 1.9999-1.9999 1.9999h-8.79955c-1.10452 0-1.9999-.8955-1.9999-1.9999v-2.4006c0-.221.17908-.4.39998-.4zm9.19953-9.833v1.834h1.83422zm-2.96553 5.833-1.71707-1.717c-.1562-.156-.1562-.4094 0-.5656s.40945-.1562.56567 0l2.39986 2.3999c.1562.1562.1562.4095 0 .5657l-2.39986 2.4c-.15622.156-.40947.156-.56567 0-.1562-.1564-.1562-.4096 0-.566l1.71707-1.717h-6.234c-.2209 0-.39998-.179-.39998-.4 0-.2208.17908-.4.39998-.4z"/><path d="m-304.8509-3759.025c.01196 1.094.9027 1.9775 1.99977 1.9775h8.79956c1.10451 0 1.9999-.8955 1.9999-1.9999v-10.3771c.00673-.1062-.02867-.2165-.11715-.3052l-1.73388-1.7338v1.1313l.4854.4852h-.4854v.8h1.05107v9.9996c0 .6627-.53723 1.2-1.19994 1.2h-8.79956c-.65527 0-1.18783-.5252-1.19974-1.1776z"/></g></g></svg>

<?xml version="1.0" encoding="UTF-8" standalone="no"?>
<!DOCTYPE svg PUBLIC "-//W3C//DTD SVG 1.1//EN" "http://www.w3.org/Graphics/SVG/1.1/DTD/svg11.dtd">
<svg version="1.1" xmlns="http://www.w3.org/2000/svg" xmlns:xl="http://www.w3.org/1999/xlink" xmlns:dc="http://purl.org/dc/elements/1.1/" viewBox="-311.93502 -3778.5825 25 25" width="25" height="25">
  <defs/>
  <g id="SOURCES" stroke-dasharray="none" fill="none" stroke="none" fill-opacity="1" stroke-opacity="1">
    <title>SOURCES</title>
    <g id="SOURCES_Calque_1">
      <title>Calque 1</title>
      <g id="Graphic_6351">
        <title>views/view.other</title>
        <path d="M -307.59502 -3778.0825 L -291.27503 -3778.0825 C -289.15425 -3778.0825 -287.43502 -3776.3632 -287.43502 -3774.2425 L -287.43502 -3757.9225 C -287.43502 -3755.8017 -289.15425 -3754.0825 -291.27503 -3754.0825 L -307.59502 -3754.0825 C -309.7158 -3754.0825 -311.43502 -3755.8017 -311.43502 -3757.9225 L -311.43502 -3774.2425 C -311.43502 -3776.3632 -309.7158 -3778.0825 -307.59502 -3778.0825 Z" fill="white"/>
        <path d="M -307.59502 -3778.0825 L -291.27503 -3778.0825 C -289.15425 -3778.0825 -287.43502 -3776.3632 -287.43502 -3774.2425 L -287.43502 -3757.9225 C -287.43502 -3755.8017 -289.15425 -3754.0825 -291.27503 -3754.0825 L -307.59502 -3754.0825 C -309.7158 -3754.0825 -311.43502 -3755.8017 -311.43502 -3757.9225 L -311.43502 -3774.2425 C -311.43502 -3776.3632 -309.7158 -3778.0825 -307.59502 -3778.0825 Z" stroke="black" stroke-linecap="round" stroke-linejoin="round" stroke-width=".25"/>
      </g>
      <g id="Graphic_6352">
        <path d="M -306.4192 -3763.918 C -306.1983 -3763.918 -306.01922 -3763.739 -306.01922 -3763.518 L -306.01922 -3761.1174 C -306.01922 -3760.4547 -305.482 -3759.9174 -304.81928 -3759.9174 L -296.01973 -3759.9174 C -295.35702 -3759.9174 -294.8198 -3760.4547 -294.8198 -3761.1174 L -294.8198 -3771.117 L -297.61965 -3771.117 C -297.84055 -3771.117 -298.01963 -3771.296 -298.01963 -3771.517 L -298.01963 -3774.3167 L -304.81928 -3774.3167 C -305.482 -3774.3167 -306.01922 -3773.7795 -306.01922 -3773.1168 L -306.01922 -3771.5177 C -306.01922 -3771.2968 -306.1983 -3771.1177 -306.4192 -3771.1177 C -306.6401 -3771.1177 -306.81918 -3771.2968 -306.81918 -3771.5177 L -306.81918 -3773.1168 C -306.81918 -3774.2213 -305.9238 -3775.1167 -304.81928 -3775.1167 L -297.64203 -3775.1167 C -297.53584 -3775.1234 -297.4253 -3775.088 -297.33682 -3774.9995 L -294.137 -3771.7997 C -294.0485 -3771.711 -294.0131 -3771.6007 -294.01983 -3771.4945 L -294.01983 -3761.1174 C -294.01983 -3760.013 -294.91522 -3759.1175 -296.01973 -3759.1175 L -304.81928 -3759.1175 C -305.9238 -3759.1175 -306.81918 -3760.013 -306.81918 -3761.1174 L -306.81918 -3763.518 C -306.81918 -3763.739 -306.6401 -3763.918 -306.4192 -3763.918 Z M -297.21967 -3773.751 L -297.21967 -3771.917 L -295.38545 -3771.917 Z M -300.1852 -3767.918 L -301.90227 -3769.635 C -302.05847 -3769.791 -302.05847 -3770.0444 -301.90227 -3770.2006 C -301.74607 -3770.3568 -301.49282 -3770.3568 -301.3366 -3770.2006 L -298.93674 -3767.8007 C -298.78054 -3767.6445 -298.78054 -3767.3912 -298.93674 -3767.235 L -301.3366 -3764.835 C -301.49282 -3764.679 -301.74607 -3764.679 -301.90227 -3764.835 C -302.05847 -3764.9914 -302.05847 -3765.2446 -301.90227 -3765.401 L -300.1852 -3767.118 L -306.4192 -3767.118 C -306.6401 -3767.118 -306.81918 -3767.297 -306.81918 -3767.518 C -306.81918 -3767.7388 -306.6401 -3767.918 -306.4192 -3767.918 Z" fill="#538737"/>
      </g>
      <g id="Graphic_6362">
        <path d="M -304.8509 -3759.025 C -304.83894 -3757.931 -303.9482 -3757.0475 -302.85113 -3757.0475 L -294.05157 -3757.0475 C -292.94706 -3757.0475 -292.05167 -3757.943 -292.05167 -3759.0474 L -292.05167 -3769.4245 C -292.04494 -3769.5307 -292.08034 -3769.641 -292.16882 -3769.7297 L -293.9027 -3771.4635 L -293.9027 -3770.3322 L -293.4173 -3769.847 L -293.9027 -3769.847 L -293.9027 -3769.047 L -292.85163 -3769.047 L -292.85163 -3759.0474 C -292.85163 -3758.3847 -293.38886 -3757.8474 -294.05157 -3757.8474 L -302.85113 -3757.8474 C -303.5064 -3757.8474 -304.03896 -3758.3726 -304.05087 -3759.025 Z" fill="#538737"/>
      </g>
    </g>
  </g>
</svg>
